images/logo.svg

<?xml version="1.0" encoding="UTF-8"?>
<!DOCTYPE svg PUBLIC "-//W3C//DTD SVG 1.1//EN" "http://www.w3.org/Graphics/SVG/1.1/DTD/svg11.dtd">
<svg xmlns="http://www.w3.org/2000/svg" version="1.1" width="229px" height="230px" style="shape-rendering:geometricPrecision; text-rendering:geometricPrecision; image-rendering:optimizeQuality; fill-rule:evenodd; clip-rule:evenodd" xmlns:xlink="http://www.w3.org/1999/xlink">
<g><path style="opacity:1" fill="#121212" d="M -0.5,-0.5 C 75.8333,-0.5 152.167,-0.5 228.5,-0.5C 228.5,76.1667 228.5,152.833 228.5,229.5C 152.167,229.5 75.8333,229.5 -0.5,229.5C -0.5,152.833 -0.5,76.1667 -0.5,-0.5 Z"/></g>
<g><path style="opacity:1" fill="#efeb3f" d="M 77.5,41.5 C 89.3217,40.5049 101.322,40.1716 113.5,40.5C 113.5,46.1667 113.5,51.8333 113.5,57.5C 107.788,57.5439 102.121,57.7106 96.5,58C 90.2948,52.2908 83.9615,46.7908 77.5,41.5 Z"/></g>
<g><path style="opacity:1" fill="#efea3f" d="M 117.5,40.5 C 129.505,40.3335 141.505,40.5001 153.5,41C 147.167,46.6667 140.833,52.3333 134.5,58C 128.868,57.7825 123.201,57.6158 117.5,57.5C 117.5,51.8333 117.5,46.1667 117.5,40.5 Z"/></g>
<g><path style="opacity:1" fill="#e8e33e" d="M 73.5,43.5 C 80.4805,49.4773 87.4805,55.4773 94.5,61.5C 91.9228,63.9202 90.9228,66.9202 91.5,70.5C 85.0407,69.4024 78.874,67.4024 73,64.5C 72.2055,57.4197 72.3722,50.4197 73.5,43.5 Z"/></g>
<g><path style="opacity:1" fill="#ece73f" d="M 156.5,43.5 C 157.117,43.6107 157.617,43.944 158,44.5C 158.831,51.1915 158.664,57.8582 157.5,64.5C 152.422,67.083 147.088,69.083 141.5,70.5C 139.417,67.4156 138.251,64.0823 138,60.5C 144.363,54.9673 150.529,49.3007 156.5,43.5 Z"/></g>
<g><path style="opacity:1" fill="#e9e53e" d="M 101.5,61.5 C 111.172,61.3335 120.839,61.5002 130.5,62C 134.557,63.9473 136.057,67.114 135,71.5C 131.788,72.8554 128.622,74.3554 125.5,76C 124.874,76.7504 124.374,77.5838 124,78.5C 122.814,84.0845 122.148,89.7512 122,95.5C 117.697,97.8253 113.197,98.1586 108.5,96.5C 108.91,90.3792 108.41,84.3792 107,78.5C 104.063,74.7813 100.229,72.7813 95.5,72.5C 94.6757,67.1393 96.6757,63.4726 101.5,61.5 Z"/></g>
<g><path style="opacity:1" fill="#676523" d="M 74.5,69.5 C 72.5437,75.412 71.8771,81.7453 72.5,88.5C 71.5093,82.021 71.176,75.3543 71.5,68.5C 72.791,68.2627 73.791,68.596 74.5,69.5 Z"/></g>
<g><path style="opacity:1" fill="#eee93f" d="M 74.5,69.5 C 80.1253,70.9278 85.4586,72.9278 90.5,75.5C 90.5,79.5 90.5,83.5 90.5,87.5C 84.9738,87.1786 79.6405,87.5119 74.5,88.5C 73.8333,88.5 73.1667,88.5 72.5,88.5C 71.8771,81.7453 72.5437,75.412 74.5,69.5 Z"/></g>
<g><path style="opacity:1" fill="#e9e43e" d="M 157.5,69.5 C 158.49,75.6446 158.823,81.9779 158.5,88.5C 152.167,88.5 145.833,88.5 139.5,88.5C 139.334,84.1539 139.501,79.8206 140,75.5C 145.857,73.4151 151.691,71.4151 157.5,69.5 Z"/></g>
<g><path style="opacity:1" fill="#696623" d="M 157.5,69.5 C 157.56,68.9569 157.893,68.6236 158.5,68.5C 159.818,75.3222 159.818,81.9888 158.5,88.5C 158.823,81.9779 158.49,75.6446 157.5,69.5 Z"/></g>
<g><path style="opacity:1" fill="#e4e03d" d="M 94.5,76.5 C 97.5792,76.8042 100.413,77.8042 103,79.5C 104.245,85.3902 104.912,91.3902 105,97.5C 105.833,98.3333 106.667,99.1667 107.5,100C 104.689,100.911 101.856,101.744 99,102.5C 97.7387,102.241 96.7387,101.574 96,100.5C 94.6367,92.5705 94.1367,84.5705 94.5,76.5 Z"/></g>
<g><path style="opacity:1" fill="#e1dd3d" d="M 132.5,76.5 C 133.833,76.5 135.167,76.5 136.5,76.5C 136.901,84.5852 136.401,92.5852 135,100.5C 131.261,102.642 127.428,102.475 123.5,100C 124.701,99.0975 125.535,97.9308 126,96.5C 126.333,91.1667 126.667,85.8333 127,80.5C 128.5,78.5313 130.333,77.198 132.5,76.5 Z"/></g>
<g><path style="opacity:1" fill="#b3af33" d="M 90.5,75.5 C 91.4849,79.6344 91.8182,83.9677 91.5,88.5C 85.8333,88.5 80.1667,88.5 74.5,88.5C 79.6405,87.5119 84.9738,87.1786 90.5,87.5C 90.5,83.5 90.5,79.5 90.5,75.5 Z"/></g>
<g><path style="opacity:1" fill="#3e3d1b" d="M 90.5,92.5 C 84.5,92.5 78.5,92.5 72.5,92.5C 72.5,97.1667 72.5,101.833 72.5,106.5C 71.5128,101.695 71.1795,96.6946 71.5,91.5C 78.0221,91.1765 84.3554,91.5098 90.5,92.5 Z"/></g>
<g><path style="opacity:1" fill="#ebe63e" d="M 90.5,92.5 C 91.1982,95.8973 91.8648,99.3973 92.5,103C 86.7803,105.057 80.9469,106.891 75,108.5C 73.6244,108.316 72.7911,107.649 72.5,106.5C 72.5,101.833 72.5,97.1667 72.5,92.5C 78.5,92.5 84.5,92.5 90.5,92.5 Z"/></g>
<g><path style="opacity:1" fill="#e9e43e" d="M 139.5,92.5 C 145.833,92.5 152.167,92.5 158.5,92.5C 158.5,97.8333 158.5,103.167 158.5,108.5C 151.588,107.772 144.921,106.105 138.5,103.5C 139.426,99.9062 139.759,96.2396 139.5,92.5 Z"/></g>
<g><path style="opacity:1" fill="#e4df3d" d="M 111.5,102.5 C 117.399,102.594 123.066,103.761 128.5,106C 124.323,108.848 120.156,111.682 116,114.5C 111.244,112.078 106.744,109.244 102.5,106C 105.731,105.139 108.731,103.972 111.5,102.5 Z"/></g>
<g><path style="opacity:1" fill="#e4df3d" d="M 92.5,107.5 C 96.1219,106.924 99.1219,107.924 101.5,110.5C 97.824,114.541 94.1573,118.541 90.5,122.5C 85.8333,119.167 81.1667,115.833 76.5,112.5C 81.9405,110.813 87.2738,109.146 92.5,107.5 Z"/></g>
<g><path style="opacity:1" fill="#e8e33e" d="M 132.5,107.5 C 139.887,108.846 147.22,110.513 154.5,112.5C 149.126,116.378 143.626,120.045 138,123.5C 134.555,120.645 131.555,117.312 129,113.5C 128.333,112.5 128.333,111.5 129,110.5C 130.518,109.837 131.685,108.837 132.5,107.5 Z"/></g>
<g><path style="opacity:1" fill="#e9e43e" d="M 104.5,113.5 C 107.342,114.172 109.842,115.506 112,117.5C 112.831,124.192 112.664,130.858 111.5,137.5C 105.693,133.526 100.026,129.36 94.5,125C 97.6693,120.999 101.003,117.166 104.5,113.5 Z"/></g>
<g><path style="opacity:1" fill="#e4df3d" d="M 122.5,114.5 C 123.822,114.33 124.989,114.663 126,115.5C 128.5,119.167 131,122.833 133.5,126.5C 128.514,130.661 123.181,134.327 117.5,137.5C 116.336,131.528 116.17,125.528 117,119.5C 119.191,118.167 121.024,116.5 122.5,114.5 Z"/></g>
<g><path style="opacity:1" fill="#a9a9a9" d="M 111.5,152.5 C 119.316,151.508 127.316,151.174 135.5,151.5C 135.5,153.5 135.5,155.5 135.5,157.5C 128.5,157.5 121.5,157.5 114.5,157.5C 120.979,156.509 127.646,156.176 134.5,156.5C 134.5,155.167 134.5,153.833 134.5,152.5C 126.833,152.5 119.167,152.5 111.5,152.5 Z"/></g>
<g><path style="opacity:1" fill="#dbdbdb" d="M 33.5,151.5 C 41.1667,151.5 48.8333,151.5 56.5,151.5C 56.5,153.5 56.5,155.5 56.5,157.5C 49.1591,157.334 41.8258,157.5 34.5,158C 33.1827,164.136 33.1827,170.303 34.5,176.5C 41.8032,177.497 49.1365,177.831 56.5,177.5C 56.5,179.167 56.5,180.833 56.5,182.5C 48.4931,182.666 40.4931,182.5 32.5,182C 31.5838,181.626 30.7504,181.126 30,180.5C 28.396,172.27 28.0627,163.937 29,155.5C 30.3968,153.93 31.8968,152.596 33.5,151.5 Z"/></g>
<g><path style="opacity:1" fill="#d7d7d7" d="M 67.5,151.5 C 67.5,160.167 67.5,168.833 67.5,177.5C 75.1667,177.5 82.8333,177.5 90.5,177.5C 90.5,179.167 90.5,180.833 90.5,182.5C 80.9166,182.818 71.4166,182.485 62,181.5C 61.5002,171.506 61.3335,161.506 61.5,151.5C 63.5,151.5 65.5,151.5 67.5,151.5 Z"/></g>
<g><path style="opacity:1" fill="#d1d1d1" d="M 94.5,151.5 C 96.5,151.5 98.5,151.5 100.5,151.5C 100.5,161.833 100.5,172.167 100.5,182.5C 98.5,182.5 96.5,182.5 94.5,182.5C 94.5,172.167 94.5,161.833 94.5,151.5 Z"/></g>
<g><path style="opacity:1" fill="#dcdcdc" d="M 111.5,152.5 C 119.167,152.5 126.833,152.5 134.5,152.5C 134.5,153.833 134.5,155.167 134.5,156.5C 127.646,156.176 120.979,156.509 114.5,157.5C 113.883,157.611 113.383,157.944 113,158.5C 112.191,164.749 112.358,170.916 113.5,177C 120.826,177.5 128.159,177.666 135.5,177.5C 135.5,179.167 135.5,180.833 135.5,182.5C 127.16,182.666 118.827,182.5 110.5,182C 109.667,181.167 108.833,180.333 108,179.5C 106.437,171.913 106.104,164.246 107,156.5C 108.371,154.959 109.871,153.625 111.5,152.5 Z"/></g>
<g><path style="opacity:1" fill="#dbdbdb" d="M 140.5,151.5 C 142.5,151.5 144.5,151.5 146.5,151.5C 146.5,161.833 146.5,172.167 146.5,182.5C 144.5,182.5 142.5,182.5 140.5,182.5C 140.5,172.167 140.5,161.833 140.5,151.5 Z"/></g>
<g><path style="opacity:1" fill="#dadada" d="M 165.5,151.5 C 168.187,151.336 170.854,151.503 173.5,152C 167.684,156.649 162.351,161.816 157.5,167.5C 162.652,172.152 167.652,176.985 172.5,182C 169.833,182.667 167.167,182.667 164.5,182C 160.833,178.333 157.167,174.667 153.5,171C 151.866,170.506 150.199,170.34 148.5,170.5C 148.5,168.5 148.5,166.5 148.5,164.5C 150.199,164.66 151.866,164.494 153.5,164C 157.704,159.964 161.704,155.798 165.5,151.5 Z"/></g>
<g><path style="opacity:1" fill="#d8d8d8" d="M 176.5,151.5 C 184.279,151.068 191.946,151.568 199.5,153C 200.333,153.833 201.167,154.667 202,155.5C 202.667,163.167 202.667,170.833 202,178.5C 200.833,179.667 199.667,180.833 198.5,182C 191.174,182.5 183.841,182.666 176.5,182.5C 176.5,180.833 176.5,179.167 176.5,177.5C 182.842,177.666 189.175,177.5 195.5,177C 196.423,174.959 196.756,172.792 196.5,170.5C 189.833,170.5 183.167,170.5 176.5,170.5C 176.5,168.5 176.5,166.5 176.5,164.5C 183.5,164.5 190.5,164.5 197.5,164.5C 197.682,162.409 197.348,160.409 196.5,158.5C 189.866,157.503 183.2,157.17 176.5,157.5C 176.5,155.5 176.5,153.5 176.5,151.5 Z"/></g>
<g><path style="opacity:1" fill="#464646" d="M 67.5,151.5 C 68.4927,159.65 68.8261,167.983 68.5,176.5C 76.1667,176.5 83.8333,176.5 91.5,176.5C 91.7947,178.735 91.4614,180.735 90.5,182.5C 90.5,180.833 90.5,179.167 90.5,177.5C 82.8333,177.5 75.1667,177.5 67.5,177.5C 67.5,168.833 67.5,160.167 67.5,151.5 Z"/></g>
</svg>

<svg xmlns="http://www.w3.org/2000/svg" width="229" height="230" style="shape-rendering:geometricPrecision;text-rendering:geometricPrecision;image-rendering:optimizeQuality;fill-rule:evenodd;clip-rule:evenodd"><path style="opacity:1" fill="#121212" d="M-.5-.5h229v230H-.5V-.5z"/><path style="opacity:1" fill="#efeb3f" d="M77.5 41.5c11.822-.995 23.822-1.328 36-1v17a388.71 388.71 0 0 0-17 .5 436.248 436.248 0 0 0-19-16.5z"/><path style="opacity:1" fill="#efea3f" d="M117.5 40.5c12.005-.166 24.005 0 36 .5l-19 17a929.915 929.915 0 0 0-17-.5v-17z"/><path style="opacity:1" fill="#e8e33e" d="M73.5 43.5c6.98 5.977 13.98 11.977 21 18-2.577 2.42-3.577 5.42-3 9a66.809 66.809 0 0 1-18.5-6c-.794-7.08-.628-14.08.5-21z"/><path style="opacity:1" fill="#ece73f" d="M156.5 43.5c.617.11 1.117.444 1.5 1a67.229 67.229 0 0 1-.5 20 76.828 76.828 0 0 1-16 6c-2.083-3.084-3.249-6.418-3.5-10a454.965 454.965 0 0 0 18.5-17z"/><path style="opacity:1" fill="#e9e53e" d="M101.5 61.5c9.672-.166 19.339 0 29 .5 4.057 1.947 5.557 5.114 4.5 9.5a122.878 122.878 0 0 0-9.5 4.5 9.457 9.457 0 0 0-1.5 2.5 93.205 93.205 0 0 0-2 17c-4.303 2.325-8.803 2.659-13.5 1 .41-6.12-.09-12.12-1.5-18-2.937-3.719-6.771-5.719-11.5-6-.824-5.36 1.176-9.027 6-11z"/><path style="opacity:1" fill="#676523" d="M74.5 69.5c-1.956 5.912-2.623 12.245-2 19-.99-6.479-1.324-13.146-1-20 1.291-.237 2.291.096 3 1z"/><path style="opacity:1" fill="#eee93f" d="M74.5 69.5c5.625 1.428 10.959 3.428 16 6v12c-5.526-.321-10.86.012-16 1h-2c-.623-6.755.044-13.088 2-19z"/><path style="opacity:1" fill="#e9e43e" d="M157.5 69.5c.99 6.145 1.323 12.478 1 19h-19a84.9 84.9 0 0 1 .5-13 786.503 786.503 0 0 1 17.5-6z"/><path style="opacity:1" fill="#696623" d="M157.5 69.5c.06-.543.393-.876 1-1 1.318 6.822 1.318 13.489 0 20 .323-6.522-.01-12.855-1-19z"/><path style="opacity:1" fill="#e4e03d" d="M94.5 76.5a18.625 18.625 0 0 1 8.5 3 93.334 93.334 0 0 1 2 18l2.5 2.5a162.154 162.154 0 0 1-8.5 2.5c-1.261-.259-2.261-.926-3-2a111.61 111.61 0 0 1-1.5-24z"/><path style="opacity:1" fill="#e1dd3d" d="M132.5 76.5h4a106.882 106.882 0 0 1-1.5 24c-3.739 2.142-7.572 1.975-11.5-.5a6.977 6.977 0 0 0 2.5-3.5l1-16c1.5-1.969 3.333-3.302 5.5-4z"/><path style="opacity:1" fill="#b3af33" d="M90.5 75.5c.985 4.134 1.318 8.468 1 13h-17c5.14-.988 10.474-1.321 16-1v-12z"/><path style="opacity:1" fill="#3e3d1b" d="M90.5 92.5h-18v14c-.987-4.805-1.32-9.805-1-15 6.522-.323 12.855.01 19 1z"/><path style="opacity:1" fill="#ebe63e" d="M90.5 92.5a379.57 379.57 0 0 1 2 10.5 226.457 226.457 0 0 1-17.5 5.5c-1.376-.184-2.209-.851-2.5-2v-14h18z"/><path style="opacity:1" fill="#e9e43e" d="M139.5 92.5h19v16a73.386 73.386 0 0 1-20-5 34.302 34.302 0 0 0 1-11z"/><path style="opacity:1" fill="#e4df3d" d="M111.5 102.5a46.166 46.166 0 0 1 17 3.5 5859.282 5859.282 0 0 1-12.5 8.5 87.783 87.783 0 0 1-13.5-8.5c3.231-.861 6.231-2.028 9-3.5zM92.5 107.5c3.622-.576 6.622.424 9 3a2122.124 2122.124 0 0 1-11 12l-14-10c5.44-1.687 10.774-3.354 16-5z"/><path style="opacity:1" fill="#e8e33e" d="M132.5 107.5a261.64 261.64 0 0 1 22 5 266.661 266.661 0 0 1-16.5 11c-3.445-2.855-6.445-6.188-9-10-.667-1-.667-2 0-3 1.518-.663 2.685-1.663 3.5-3z"/><path style="opacity:1" fill="#e9e43e" d="M104.5 113.5c2.842.672 5.342 2.006 7.5 4a67.229 67.229 0 0 1-.5 20 310.947 310.947 0 0 1-17-12.5 165.825 165.825 0 0 1 10-11.5z"/><path style="opacity:1" fill="#e4df3d" d="M122.5 114.5c1.322-.17 2.489.163 3.5 1l7.5 11a104.265 104.265 0 0 1-16 11 54.557 54.557 0 0 1-.5-18c2.191-1.333 4.024-3 5.5-5z"/><path style="opacity:1" fill="#a9a9a9" d="M111.5 152.5c7.816-.992 15.816-1.326 24-1v6h-21c6.479-.991 13.146-1.324 20-1v-4h-23z"/><path style="opacity:1" fill="#dbdbdb" d="M33.5 151.5h23v6c-7.34-.166-14.674 0-22 .5-1.317 6.136-1.317 12.303 0 18.5a121.86 121.86 0 0 0 22 1v5c-8.007.166-16.007 0-24-.5a9.457 9.457 0 0 1-2.5-1.5c-1.604-8.23-1.937-16.563-1-25 1.397-1.57 2.897-2.904 4.5-4z"/><path style="opacity:1" fill="#d7d7d7" d="M67.5 151.5v26h23v5a207.486 207.486 0 0 1-28.5-1c-.5-9.994-.666-19.994-.5-30h6z"/><path style="opacity:1" fill="#d1d1d1" d="M94.5 151.5h6v31h-6v-31z"/><path style="opacity:1" fill="#dcdcdc" d="M111.5 152.5h23v4c-6.854-.324-13.521.009-20 1-.617.111-1.117.444-1.5 1-.809 6.249-.642 12.416.5 18.5 7.326.5 14.659.666 22 .5v5c-8.34.166-16.673 0-25-.5l-2.5-2.5a72.173 72.173 0 0 1-1-23 25.14 25.14 0 0 1 4.5-4z"/><path style="opacity:1" fill="#dbdbdb" d="M140.5 151.5h6v31h-6v-31z"/><path style="opacity:1" fill="#dadada" d="M165.5 151.5a32.462 32.462 0 0 1 8 .5 117.182 117.182 0 0 0-16 15.5 307.286 307.286 0 0 1 15 14.5 16.242 16.242 0 0 1-8 0l-11-11a12.93 12.93 0 0 0-5-.5v-6a12.93 12.93 0 0 0 5-.5 210.447 210.447 0 0 0 12-12.5z"/><path style="opacity:1" fill="#d8d8d8" d="M176.5 151.5a94.81 94.81 0 0 1 23 1.5l2.5 2.5c.667 7.667.667 15.333 0 23l-3.5 3.5c-7.326.5-14.659.666-22 .5v-5c6.342.166 12.675 0 19-.5.923-2.041 1.256-4.208 1-6.5h-20v-6h21a11.988 11.988 0 0 0-1-6c-6.634-.997-13.3-1.33-20-1v-6z"/><path style="opacity:1" fill="#464646" d="M67.5 151.5c.993 8.15 1.326 16.483 1 25h23c.295 2.235-.039 4.235-1 6v-5h-23v-26z"/></svg>
